X:65
T:T038- Drogheda's March
S:Brysson's Curious Collection (1791)
Q:1/4=120
L:1/8
M:6/8
K:G
GBG GBG|GBG~c2A|GBG GBG|GBG~A2G::GBdg3|edcd3|\
GBde2g|dgBA2G|GBdg3|e3d3|e2g dBg|dBGA2G:|]

